svg/u1f251.svg

<svg viewBox="0 0 128 128" xmlns="http://www.w3.org/2000/svg">
  <g>
    <circle cx="63.93" cy="64" r="60" fill="#F77E00"/>
    <circle cx="60.03" cy="63.1" r="56.1" fill="#FF9800"/>
    <path d="M23.93,29.7c4.5-7.1,14.1-13,24.1-14.8 c2.5-0.4,5-0.6,7.1,0.2c1.6,0.6,2.9,2.1,2,3.8c-0.7,1.4-2.6,2-4.1,2.5c-9.38,3.1-17.47,9.21-23,17.4c-2,3-5,11.3-8.7,9.2 C17.43,45.7,18.23,38.5,23.93,29.7z" opacity="0.65" fill="#FFBD52" enable-background="new "/>
    <path d="M102.23,38h-6.8c-1.1,0-2,0.9-2,2v55.4c0,5.4-1.4,8.3-5.2,9.5c-3.7,1.4-9.5,1.6-17.8,1.6 c-0.87,0-1.64-0.57-1.9-1.4c-0.5-1.6-1.1-3.17-1.8-4.7c-0.44-1.01,0.02-2.19,1.03-2.63c0.27-0.12,0.57-0.18,0.87-0.17 c5.8,0.2,11.4,0.1,13.3,0.1s2.6-0.6,2.6-2.5V39.9c0-1.1-0.9-2-2-2h-57c-1.1,0-2-0.9-2-2v-4.5c0-1.1,0.9-2,2-2h76.6c1.1,0,2,0.9,2,2 v4.4c0.11,1.1-0.69,2.08-1.79,2.19C102.3,38,102.26,38,102.23,38z M40.73,86v3.1c0,1.1-0.9,2-2,2h-4.2c-1.1,0-2-0.9-2-2V51.8 c0-1.1,0.9-2,2-2h33.4c1.1,0,2,0.9,2,2V82c0,1.1-0.9,2-2,2h-25.2C41.62,84,40.73,84.9,40.73,86z M40.73,59.8V74c0,1.1,0.9,2,2,2 h16.9c1.1,0,2-0.9,2-2V59.8c0-1.1-0.9-2-2-2h-16.9C41.62,57.8,40.73,58.7,40.73,59.8z" fill="#FAFAFA"/>
    <path d="M23.93,29.7c4.5-7.1,14.1-13,24.1-14.8 c2.5-0.4,5-0.6,7.1,0.2c1.6,0.6,2.9,2.1,2,3.8c-0.7,1.4-2.6,2-4.1,2.5c-9.38,3.1-17.47,9.21-23,17.4c-2,3-5,11.3-8.7,9.2 C17.43,45.7,18.23,38.5,23.93,29.7z" opacity="0.3" fill="#FFBD52" enable-background="new "/>
  </g>
</svg>

<svg viewBox="0 0 128 128" xmlns="http://www.w3.org/2000/svg">
  <defs/>
  <path d="M123.93,64 A60 60 0 1 1 3.93,64 A60 60 0 1 1 123.93,64 Z" fill="#F77E00"/>
  <path d="M116.13,63.1 A56.1 56.1 0 1 1 3.93,63.1 A56.1 56.1 0 1 1 116.13,63.1 Z" fill="#FF9800"/>
  <path d="M23.93,29.7 C28.43,22.6 38.03,16.7 48.03,14.9 C50.53,14.5 53.03,14.3 55.13,15.1 C56.73,15.7 58.03,17.2 57.13,18.9 C56.43,20.3 54.53,20.9 53.03,21.4 C43.65,24.5 35.56,30.61 30.03,38.8 C28.03,41.8 25.03,50.1 21.33,48 C17.43,45.7 18.23,38.5 23.93,29.7 Z" fill="#FFBD52" opacity="0.65"/>
  <path d="M102.23,38 L95.43,38 C94.33,38 93.43,38.9 93.43,40 L93.43,95.4 C93.43,100.8 92.03,103.7 88.23,104.9 C84.53,106.3 78.73,106.5 70.43,106.5 C69.56,106.5 68.79,105.93 68.53,105.1 C68.03,103.5 67.43,101.93 66.73,100.4 C66.29,99.39 66.75,98.21 67.76,97.77 C68.03,97.65 68.33,97.59 68.63,97.6 C74.43,97.8 80.03,97.7 81.93,97.7 C83.83,97.7 84.53,97.1 84.53,95.2 L84.53,39.9 C84.53,38.8 83.63,37.9 82.53,37.9 L25.53,37.9 C24.43,37.9 23.53,37 23.53,35.9 L23.53,31.4 C23.53,30.3 24.43,29.4 25.53,29.4 L102.13,29.4 C103.23,29.4 104.13,30.3 104.13,31.4 L104.13,35.8 C104.24,36.9 103.44,37.88 102.34,37.99 C102.3,38 102.26,38 102.23,38 Z M40.73,86 L40.73,89.1 C40.73,90.2 39.83,91.1 38.73,91.1 L34.53,91.1 C33.43,91.1 32.53,90.2 32.53,89.1 L32.53,51.8 C32.53,50.7 33.43,49.8 34.53,49.8 L67.93,49.8 C69.03,49.8 69.93,50.7 69.93,51.8 L69.93,82 C69.93,83.1 69.03,84 67.93,84 L42.73,84 C41.62,84 40.73,84.9 40.73,86 Z M40.73,59.8 L40.73,74 C40.73,75.1 41.63,76 42.73,76 L59.63,76 C60.73,76 61.63,75.1 61.63,74 L61.63,59.8 C61.63,58.7 60.73,57.8 59.63,57.8 L42.73,57.8 C41.62,57.8 40.73,58.7 40.73,59.8 Z" fill="#FAFAFA"/>
  <path d="M23.93,29.7 C28.43,22.6 38.03,16.7 48.03,14.9 C50.53,14.5 53.03,14.3 55.13,15.1 C56.73,15.7 58.03,17.2 57.13,18.9 C56.43,20.3 54.53,20.9 53.03,21.4 C43.65,24.5 35.56,30.61 30.03,38.8 C28.03,41.8 25.03,50.1 21.33,48 C17.43,45.7 18.23,38.5 23.93,29.7 Z" fill="#FFBD52" opacity="0.3"/>
</svg>
